images/google.svg

<svg fill="none" height="18" viewBox="0 0 18 18" width="18" xmlns="http://www.w3.org/2000/svg"><path d="m17.6491 7.36875h-8.46795v3.48045h4.83755c-.2086 1.125-.8415 2.0766-1.7954 2.7141-.8062.539-1.8351.8578-3.04449.8578-2.34141 0-4.32188-1.582-5.02969-3.7078-.17812-.5391-.28125-1.11564-.28125-1.70861s.10313-1.16953.28125-1.7086c.71016-2.12343 2.69063-3.70546 5.03203-3.70546 1.31955 0 2.50315.45468 3.43595 1.34531l2.5781-2.58047c-1.5586-1.453126-3.5906-2.3437512-6.01405-2.3437512-3.51328 0-6.55312 2.0156212-8.03203 4.9546912-.609374 1.21406-.956249 2.5875-.956249 4.04062 0 1.45317.346875 2.82417.956249 4.03827 1.47891 2.9391 4.51875 4.9547 8.03203 4.9547 2.42815 0 4.46255-.8062 5.94845-2.1797 1.6992-1.5656 2.6812-3.8719 2.6812-6.61171 0-.6375-.0562-1.24922-.1617-1.83984z" fill="#5490e9"/></svg>

<svg width="18" height="18" viewBox="0 0 18 18" fill="none" xmlns="http://www.w3.org/2000/svg">
<path d="M17.6491 7.36875H9.18115V10.8492H14.0187C13.8101 11.9742 13.1772 12.9258 12.2233 13.5633C11.4171 14.1023 10.3882 14.4211 9.17881 14.4211C6.8374 14.4211 4.85693 12.8391 4.14912 10.7133C3.971 10.1742 3.86787 9.59766 3.86787 9.00469C3.86787 8.41172 3.971 7.83516 4.14912 7.29609C4.85928 5.17266 6.83975 3.59063 9.18115 3.59063C10.5007 3.59063 11.6843 4.04531 12.6171 4.93594L15.1952 2.35547C13.6366 0.902344 11.6046 0.0117188 9.18115 0.0117188C5.66787 0.0117188 2.62803 2.02734 1.14912 4.96641C0.539746 6.18047 0.192871 7.55391 0.192871 9.00703C0.192871 10.4602 0.539746 11.8312 1.14912 13.0453C2.62803 15.9844 5.66787 18 9.18115 18C11.6093 18 13.6437 17.1938 15.1296 15.8203C16.8288 14.2547 17.8108 11.9484 17.8108 9.20859C17.8108 8.57109 17.7546 7.95937 17.6491 7.36875Z" fill="#5490E9"/>
</svg>
